!!!COM: Palestrina, Giovanni Perluigi da
!!!OPR: Missa Ad coenam Agni
!!!OMD: Kyrie
!!!OTL: First Section
**kern	**kern	**kern	**kern	**kern
*Ibass	*Itenor	*Icalto	*Icalto	*Icant
!Bassus	!Tenor	!Altus 2	!Altus 1	!Cantus
*clefF4	*clefGv2	*clefG2	*clefG2	*clefG2
*k[]	*k[]	*k[]	*k[]	*k[]
*G:mix	*G:mix	*G:mix	*G:mix	*G:mix
*M4/2	*M4/2	*M4/2	*M4/2	*M4/2
=1	=1	=1	=1	=1
0r	1r	0r	1c	0r
.	1G	.	1d	.
=2	=2	=2	=2	=2
0r	1A	0r	1c	0r
.	1G	.	2d	.
.	.	.	2e	.
=3	=3	=3	=3	=3
0r	2A	0r	2f	1r
.	2B	.	2d	.
.	[1c	.	4e	1g
.	.	.	4d	.
.	.	.	4c	.
.	.	.	4B	.
=4	=4	=4	=4	=4
0r	2c]	0r	2A	1a
.	2A	.	2c	.
.	2B	.	2d	1g
.	[2c	.	[2e	.
=5	=5	=5	=5	=5
0r	2c]	1r	4e]	2a
.	.	.	4f	.
.	2B	.	1g	2b
.	1A	1c	.	2cc
.	.	.	2f#	2a
=6	=6	=6	=6	=6
1G	1G	1d	1g	2b
.	.	.	.	1g
1A	2r	1c	1r	.
.	[2c	.	.	2f#
=7	=7	=7	=7	=7
1G	2c]	2d	0r	1g
.	2B	2e	.	.
2A	2c	2f	.	1r
2B	[2g	2d	.	.
=8	=8	=8	=8	=8
2c	2g]	2e	1c	1r
2A	2f#	1c	.	.
1G	2.g	.	1d	1dd
.	.	2B	.	.
.	4f	.	.	.
=9	=9	=9	=9	=9
1C	4e	1c	1c	1ee
.	4d	.	.	.
.	1c	.	.	.
[1G	.	1r	1d	1dd
.	4B	.	.	.
.	4A	.	.	.
=10	=10	=10	=10	=10
2G]	2B	1r	2G	2ee
2F	2A	.	2A	2ff
1E	1G	1g	2B	2gg
.	.	.	2G	2ee
=11	=11	=11	=11	=11
1D	2r	1a	1d	4ff
.	.	.	.	4ee
.	2d	.	.	4dd
.	.	.	.	4cc
1r	2.e	1g	1r	4b
.	.	.	.	4a
.	.	.	.	2b
.	4d	.	.	.
=12	=12	=12	=12	=12
0r	2c	2a	1r	2a
.	2B	2b	.	1g
.	1A	2cc	1c	.
.	.	2a	.	2f#
=13	=13	=13	=13	=13
2r	1G	4b	1d	1g
.	.	4a	.	.
2G	.	4g	.	.
.	.	4f	.	.
2.A	1r	4e	1c	1r
.	.	4d	.	.
.	.	2e	.	.
4G	.	.	.	.
=14	=14	=14	=14	=14
2F	2r	2d	2d	0r
2E	2G	1c	2e	.
1D	2A	.	2f	.
.	2F	2B	2d	.
=15	=15	=15	=15	=15
1.C	2G	1c	1e	1r
.	4c	.	.	.
.	4d	.	.	.
.	4e	1r	1r	1g
.	4f	.	.	.
2E	[2g	.	.	.
=16	=16	=16	=16	=16
1D	2g]	0r	1d	1a
.	2f#	.	.	.
1r	2g	.	2.e	[1g
.	2c	.	.	.
.	.	.	4d	.
=17	=17	=17	=17	=17
0r	2e	1r	2c	1g]
.	2d	.	2B	.
.	2e	1c	1A	1a
.	2f	.	.	.
=18	=18	=18	=18	=18
1G	2.g	1d	1G	1b
.	4f	.	.	.
2.A	4e	[1c	1r	2.cc
.	4d	.	.	.
.	[2c	.	.	.
4G	.	.	.	4b
=19	=19	=19	=19	=19
2F	2c]	1c]	0r	2a
2E	2G	.	.	1g
1D	1A	1d	.	.
.	.	.	.	2f#
=20	=20	=20	=20	=20
1C	0c	1e	2r	1g
.	.	.	2g	.
[1F	.	2.f	2.a	1r
.	.	4e	4g	.
=21	=21	=21	=21	=21
1F]	0r	2d	2f	1r
.	.	1c	2e	.
1G	.	.	1d	1dd
.	.	2B	.	.
=22	=22	=22	=22	=22
1C	1g	1c	2c	2.ee
.	.	.	2e	.
.	.	.	.	4dd
1r	2a	1r	2f	2cc
.	[2g	.	2g	2b
=23	=23	=23	=23	=23
1D	2g]	1r	1d	1a
.	2f#	.	.	.
2E	1g	1g	2G	2g
2G	.	.	2B	4d
.	.	.	.	4e
=24	=24	=24	=24	=24
1.F	1r	2.a	2.c	4f
.	.	.	.	4e
.	.	.	.	4f
.	.	4g	4B	4g
.	1c	2f	2A	4a
.	.	.	.	4b
2C	.	2e	[2G	[2cc
=25	=25	=25	=25	=25
1.G	2.d	[0d	4G]	2cc]
.	.	.	4A	.
.	.	.	4B	2b
.	4c	.	4c	.
.	2B	.	1d	2g
2F#	2A	.	.	[2a
=26	=26	=26	=26	=26
1G	1B	1d_	2B	4a]
.	.	.	.	4g
.	.	.	2.d	1g
1D	1A	1d_	.	.
.	.	.	4c	.
.	.	.	2A	2f#
=27	=27	=27	=27	=27
[0G	[0G	0d]	[0B	[0g
=28	=28	=28	=28	=28
0G]	0G]	0d	0B]	0g]
*-	*-	*-	*-	*-
!!!CDT: 1525/^1526/-1594/2/2
!!!OCY: Italia
!!!AGN: Mass (Canonic)
!!!AST: renaissance, vocal
!!!ASW: Hymn
!!!PWK: Masses, Book I
!!!RNB: Cadence finals: C
!!!YOR: Le Opere Complete, v. 1, p. 125
!!!YOO: Rome, Italy: Fratelli Scalera
!!!END: 1992//
!!!EED: John Miller
!!!YEC: Copyright 2000, John Miller
!!!YEN: United States of America
!!!YEM: Rights to all derivative electronic formats reserved.
!!!YEM: Refer to licensing agreement for further details.
!!!YEM: This file must be accompanied by the licensing agreement.
!!!YEM: A copy of the licensing agreement may be found at http://www.music-cog.ohio-state.edu/HumdrumDatabases/Palestrina/license.txt
!!!EMD: converted to Humdrum by Bret Aarden
